dist/images/footer/logo-2.svg

<svg width="120" height="40" viewBox="0 0 120 40" fill="none" xmlns="http://www.w3.org/2000/svg">
<path d="M16.0157 6.06421L19.5155 8.70821L17.3775 11.4284C18.8536 13.0987 19.3976 15.0046 19.3976 17.1046C19.3976 19.4748 18.5037 22.8188 15.3539 24.2569C18.5418 25.8509 19.318 28.1449 19.318 30.5948C19.318 35.8828 15.2742 39.1471 9.71615 39.1471C4.15812 39.1471 0 35.765 0 30.5948H4.70215C4.70215 33.0829 6.99604 34.715 9.71615 34.715C12.4363 34.715 14.5742 33.2388 14.5742 30.5948C14.5742 27.9508 12.0863 26.7449 9.71615 26.7449C3.73192 26.7449 0 23.0925 0 17.1046C0 11.1166 4.35217 7.38448 9.71961 7.38448C11.2373 7.38448 12.7897 7.57853 14.1134 8.47257L16.0157 6.06421ZM4.70215 17.1046C4.70215 20.4485 6.95793 22.4307 9.71615 22.4307C12.4363 22.4307 14.692 20.4104 14.692 17.1046C14.692 13.7987 12.4397 11.7022 9.71961 11.7022C6.95793 11.7022 4.70215 13.7606 4.70215 17.1046Z" fill="#112211"/>
<path d="M54.9878 0V27.1746H50.2856V0H54.9878Z" fill="#112211"/>
<path d="M76.1179 17.6105C76.1179 23.1307 72.3479 27.6008 66.128 27.6008C59.9082 27.6008 56.1763 23.1307 56.1763 17.6105C56.1763 12.1284 59.9844 7.62012 66.0899 7.62012C72.1954 7.62012 76.1179 12.1284 76.1179 17.6105ZM60.9165 17.6105C60.9165 20.5248 62.6664 23.2485 66.1246 23.2485C69.5828 23.2485 71.3326 20.5282 71.3326 17.6105C71.3326 14.7343 69.3125 11.9344 66.1246 11.9344C62.7045 11.9344 60.9165 14.7343 60.9165 17.6105Z" fill="#112211"/>
<path d="M82.0469 0V10.6141C83.1731 8.63198 86.3229 7.54389 88.343 7.54389C93.9392 7.54389 98.1008 10.9641 98.1008 17.5724C98.1008 23.8688 93.863 27.6009 88.2287 27.6009C85.8967 27.6009 83.5265 26.8246 82.0469 24.5306L81.7351 27.1746H77.3032V0H82.0469ZM82.3553 17.5724C82.3553 21.0307 84.9195 23.2104 87.9134 23.2104C90.9453 23.2104 93.3571 20.9163 93.3571 17.5724C93.3571 14.114 90.9453 11.976 87.9134 11.976C84.923 11.9725 82.3553 14.2284 82.3553 17.5724Z" fill="#112211"/>
<path d="M105.152 20.9129C106.254 23.0336 108.777 23.9381 111.919 22.7945C113.562 22.195 115.492 20.7916 116.13 19.3604L120.004 21.1347C118.822 23.7994 116.064 25.8786 113.323 26.8766C107.113 29.136 102.027 26.6444 99.9268 20.8713C97.9309 15.3927 100.221 10.0908 106.067 7.96318C112.093 5.76966 117.214 8.12604 119.217 15.7947L105.152 20.9129ZM113.6 13.6601C112.457 11.4284 110.204 10.926 107.647 11.8547C105.235 12.7314 103.69 14.62 103.884 17.1946L113.6 13.6601Z" fill="#112211"/>
<path fill-rule="evenodd" clip-rule="evenodd" d="M43.2386 13.0379C41.7013 9.83054 38.4964 7.62012 34.2213 7.62012C28.1158 7.62012 24.3076 12.1284 24.3076 17.6105C24.3076 21.1103 25.8077 24.1881 28.491 25.9722C28.6439 25.8578 28.7359 25.7835 28.7359 25.7835C30.0743 24.9103 31.3799 23.991 32.6506 23.0277C30.2567 22.3233 29.0479 20.0327 29.0479 17.6105C29.0479 14.7343 30.8393 11.9344 34.2559 11.9344C37.2647 11.9344 39.2333 14.4285 39.445 17.1269C40.7639 15.818 42.0295 14.454 43.2386 13.0379ZM33.7754 27.5917C37.5614 24.9081 41.0621 21.8426 44.2201 18.4459C43.8586 23.5747 40.1622 27.6008 34.2594 27.6008C34.0963 27.6008 33.935 27.5978 33.7754 27.5917Z" fill="white"/>
<path d="M47.1044 4.93451C42.2601 3.15336 38.7777 6.98594 38.7777 6.98594L42.08 8.9057C43.317 8.19532 43.868 8.88491 44.01 9.26262C44.1105 9.52945 43.9754 9.82053 43.868 9.97993L43.064 10.9953C38.7257 16.2278 33.6251 20.7742 27.9319 24.489C27.9319 24.489 26.2133 25.8751 25.2985 25.8959C24.5292 25.9132 24.1862 25.2652 24.8341 24.3365L23.2402 20.7396C23.2402 20.7396 19.0925 23.4564 19.8964 28.2315C20.2359 30.2483 22.1314 31.6829 24.1446 31.319C25.1737 31.1354 26.4454 30.6329 28.0012 29.6037L30.8634 27.7325C36.5566 24.0108 41.6607 19.4505 45.9955 14.211L46.9796 13.0224C48.4627 11.3349 49.128 9.94528 49.3532 8.84679C49.6997 7.16614 48.7052 5.5236 47.1044 4.93451Z" fill="white"/>
</svg>

<svg width="120" height="40" fill="none" xmlns="http://www.w3.org/2000/svg"><path d="M16.016 6.064l3.5 2.644-2.138 2.72c1.476 1.67 2.02 3.577 2.02 5.677 0 2.37-.894 5.714-4.044 7.152 3.188 1.594 3.964 3.888 3.964 6.338 0 5.288-4.044 8.552-9.602 8.552C4.158 39.147 0 35.765 0 30.595h4.702c0 2.488 2.294 4.12 5.014 4.12s4.858-1.476 4.858-4.12-2.488-3.85-4.858-3.85C3.732 26.745 0 23.093 0 17.105s4.352-9.72 9.72-9.72c1.517 0 3.07.194 4.393 1.088l1.903-2.409zM4.702 17.104c0 3.345 2.256 5.327 5.014 5.327 2.72 0 4.976-2.02 4.976-5.326 0-3.306-2.252-5.403-4.972-5.403-2.762 0-5.018 2.059-5.018 5.403zM54.988 0v27.175h-4.702V0h4.702zm21.13 17.61c0 5.52-3.77 9.99-9.99 9.99-6.22 0-9.952-4.47-9.952-9.99 0-5.482 3.808-9.99 9.914-9.99 6.105 0 10.028 4.508 10.028 9.99zm-15.201 0c0 2.915 1.75 5.639 5.208 5.639s5.208-2.72 5.208-5.639c0-2.876-2.02-5.676-5.208-5.676-3.42 0-5.209 2.8-5.209 5.676zM82.047 0v10.614c1.126-1.982 4.276-3.07 6.296-3.07 5.596 0 9.758 3.42 9.758 10.028 0 6.297-4.238 10.029-9.872 10.029-2.332 0-4.703-.776-6.182-3.07l-.312 2.644h-4.432V0h4.744zm.308 17.572c0 3.459 2.564 5.638 5.558 5.638 3.032 0 5.444-2.294 5.444-5.638 0-3.458-2.412-5.596-5.444-5.596-2.99-.004-5.558 2.252-5.558 5.596zm22.797 3.341c1.102 2.12 3.625 3.025 6.767 1.881 1.643-.599 3.573-2.002 4.211-3.434l3.874 1.775c-1.182 2.664-3.94 4.744-6.681 5.742-6.21 2.259-11.296-.233-13.396-6.006-1.996-5.478.294-10.78 6.14-12.908 6.026-2.193 11.147.163 13.15 7.832l-14.065 5.118zm8.448-7.253c-1.143-2.232-3.396-2.734-5.953-1.805-2.412.876-3.957 2.765-3.763 5.34l9.716-3.535z" fill="#121"/><path fill-rule="evenodd" clip-rule="evenodd" d="M43.239 13.038C41.7 9.83 38.496 7.62 34.22 7.62c-6.105 0-9.913 4.508-9.913 9.99 0 3.5 1.5 6.578 4.183 8.362a9.26 9.26 0 00.245-.189 67.842 67.842 0 003.915-2.755c-2.394-.705-3.603-2.995-3.603-5.418 0-2.876 1.791-5.676 5.208-5.676 3.009 0 4.977 2.495 5.189 5.193a67.631 67.631 0 003.794-4.09zm-9.464 14.554a67.79 67.79 0 0010.445-9.146c-.361 5.129-4.058 9.155-9.96 9.155-.164 0-.325-.003-.485-.01z" fill="#fff"/><path d="M47.104 4.935c-4.844-1.782-8.326 2.05-8.326 2.05l3.302 1.92c1.237-.71 1.788-.02 1.93.358.1.266-.035.558-.142.717l-.804 1.015A67.73 67.73 0 0127.932 24.49s-1.719 1.386-2.633 1.407c-.77.017-1.113-.63-.465-1.56L23.24 20.74s-4.147 2.716-3.344 7.492c.34 2.016 2.235 3.45 4.249 3.087 1.029-.184 2.3-.686 3.856-1.715l2.862-1.871A67.774 67.774 0 0045.996 14.21l.984-1.189c1.483-1.687 2.148-3.077 2.373-4.175.347-1.68-.648-3.323-2.249-3.912z" fill="#fff"/></svg>
